packages/core/src/svgs/tokens/mono/DXGM.svg

<svg width="24" height="24" viewBox="0 0 24 24" fill="none" xmlns="http://www.w3.org/2000/svg">
<path d="M10.1021 6.44678H7.55859L11.4626 12.1334L7.55859 18.1087H9.98545L12.7066 13.9437L15.5664 18.1087H18.1099L10.1021 6.44678Z" fill="white"/>
<path d="M17.5533 6.44678H15.2319L13.666 9.0235L14.8488 10.8894L17.5533 6.44678Z" fill="white"/>
<path fill-rule="evenodd" clip-rule="evenodd" d="M9.80154 2.85961C10.69 2.59305 11.6341 2.50976 12.6059 2.50976C15.0938 2.50976 17.3652 3.39273 19.0866 4.94765C19.1302 4.9862 19.1874 5.00605 19.2456 5.00294C19.3037 4.99981 19.3583 4.97398 19.3976 4.93098C19.4175 4.90923 19.4329 4.88371 19.4429 4.85595C19.4529 4.82816 19.4572 4.79869 19.4557 4.76922C19.4542 4.73975 19.4467 4.71088 19.4338 4.68431C19.421 4.65773 19.403 4.63398 19.381 4.61444C18.0897 3.44245 16.5164 2.62571 14.8148 2.24414C13.1134 1.86256 11.3419 1.9292 9.67382 2.43756C9.62422 2.45947 9.58435 2.49877 9.56172 2.54806C9.53908 2.59734 9.53527 2.65318 9.55098 2.70509C9.56668 2.75699 9.60083 2.80135 9.64698 2.82981C9.69314 2.85828 9.74812 2.86888 9.80154 2.85961ZM19.9529 5.75286C20.0863 5.75286 20.1973 5.6418 20.1973 5.50297C20.1973 5.36413 20.0863 5.25307 19.9529 5.25307C19.8142 5.25307 19.7031 5.36413 19.7031 5.50297C19.7031 5.6418 19.8142 5.75286 19.9529 5.75286ZM19.9529 6.00276C20.225 6.00276 20.4527 5.78063 20.4527 5.50297C20.4527 5.2253 20.225 5.00317 19.9529 5.00317C19.6752 5.00317 19.4531 5.2253 19.4531 5.50297C19.4531 5.78063 19.6752 6.00276 19.9529 6.00276ZM4.0428 7.24115C4.15386 7.29667 4.19273 7.42996 4.13165 7.53547C3.40209 8.93715 3.03192 10.498 3.05431 12.078C3.05431 14.2549 3.72071 16.2652 4.94242 17.8812C4.9651 17.9278 4.97083 17.9806 4.95862 18.0309C4.94643 18.0812 4.91705 18.1256 4.87559 18.1566C4.83412 18.1876 4.78316 18.203 4.73148 18.2004C4.67982 18.1978 4.63069 18.1772 4.59257 18.1422C3.27105 16.3971 2.5572 14.2671 2.56007 12.078C2.56007 10.3565 2.98767 8.74608 3.74847 7.33C3.77661 7.28009 3.82293 7.24298 3.87778 7.22643C3.93262 7.20987 3.99175 7.21514 4.0428 7.24115ZM21.3358 16.5263C21.4357 16.5817 21.469 16.7206 21.4135 16.8261C20.1956 19.0517 18.167 20.7223 15.7491 21.4909C15.7221 21.4984 15.6939 21.5005 15.6661 21.4971C15.6383 21.4936 15.6115 21.4845 15.5871 21.4706C15.5629 21.4567 15.5416 21.438 15.5247 21.4157C15.5075 21.3934 15.4952 21.368 15.4881 21.3409C15.472 21.2864 15.4775 21.2278 15.5033 21.1772C15.5292 21.1266 15.5734 21.0877 15.6269 21.0688C17.9375 20.333 19.8762 18.7362 21.0414 16.6096C21.097 16.504 21.2302 16.4651 21.3358 16.5263ZM7.99118 3.54822C8.01433 3.54063 8.03554 3.52806 8.05331 3.51138C8.07107 3.49471 8.08496 3.47434 8.09401 3.45171C8.10305 3.42909 8.10702 3.40475 8.10563 3.38042C8.10424 3.3561 8.09755 3.33237 8.08599 3.31091C8.07443 3.28946 8.05832 3.2708 8.03877 3.25626C8.01923 3.24171 7.99672 3.23163 7.97285 3.22672C7.94899 3.2218 7.92434 3.22219 7.90064 3.22786C7.87694 3.23351 7.85476 3.24429 7.83568 3.25945C7.56913 3.40383 7.30813 3.55933 7.05823 3.72592C7.03642 3.73576 7.01698 3.75017 7.00124 3.76818C6.98549 3.7862 6.97382 3.80739 6.967 3.83032C6.96017 3.85326 6.95839 3.87738 6.96173 3.90107C6.96507 3.92477 6.97347 3.94746 6.98636 3.96761C6.99927 3.98776 7.01635 4.00489 7.03646 4.01784C7.05657 4.0308 7.07924 4.03928 7.10292 4.0427C7.12659 4.04611 7.15073 4.04438 7.17369 4.03763C7.19664 4.03088 7.21786 4.01927 7.23593 4.00358C7.48027 3.83698 7.73573 3.68705 7.99118 3.54822ZM6.52511 4.51449C6.54655 4.50284 6.56517 4.48663 6.57965 4.46698C6.59413 4.44735 6.60412 4.42477 6.60892 4.40085C6.61373 4.37693 6.61321 4.35224 6.6074 4.32853C6.60161 4.30483 6.59069 4.2827 6.5754 4.26368C6.56009 4.24467 6.54081 4.22925 6.5189 4.21851C6.497 4.20777 6.47299 4.20197 6.44861 4.20153C6.42421 4.20108 6.40002 4.206 6.37773 4.21594C6.35544 4.22588 6.33562 4.24059 6.31964 4.25904C6.0864 4.44784 5.85872 4.64777 5.64214 4.86434C5.62095 4.8961 5.61131 4.93418 5.61483 4.9722C5.61836 5.01022 5.63483 5.04587 5.66151 5.07319C5.68817 5.10051 5.72342 5.11785 5.76135 5.12228C5.79926 5.12672 5.83756 5.118 5.86983 5.09758C6.08084 4.89211 6.30298 4.69775 6.52511 4.51449ZM5.26451 5.73621C5.28338 5.70244 5.28989 5.66318 5.28296 5.62514C5.27604 5.58709 5.25609 5.55264 5.22654 5.5277C5.197 5.50274 5.1597 5.48885 5.12103 5.4884C5.08237 5.48793 5.04475 5.50094 5.01462 5.52518C4.75775 5.82379 4.51854 6.13716 4.29825 6.46369C4.28474 6.48187 4.27509 6.50263 4.26988 6.52467C4.26466 6.54671 4.264 6.5696 4.26794 6.59191C4.27186 6.61422 4.2803 6.63548 4.29274 6.65443C4.30516 6.67336 4.32132 6.68957 4.34023 6.70205C4.35915 6.71453 4.3804 6.72301 4.4027 6.727C4.425 6.73098 4.44788 6.73039 4.46993 6.72523C4.49199 6.72007 4.51277 6.71047 4.53099 6.69701C4.54921 6.68355 4.5645 6.66652 4.57592 6.64694C4.78746 6.33018 5.0174 6.02607 5.26451 5.73621ZM6.15304 19.2251C6.11984 19.2022 6.07946 19.1922 6.03939 19.1967C5.99931 19.2014 5.96227 19.2203 5.93513 19.2502C5.908 19.28 5.89262 19.3186 5.89184 19.3591C5.89106 19.3994 5.90494 19.4386 5.93091 19.4695C6.21712 19.7232 6.51749 19.9606 6.83055 20.1803C6.90273 20.2358 7.00825 20.2192 7.05823 20.1415C7.08077 20.1062 7.08928 20.064 7.08208 20.0228C7.07489 19.9817 7.0525 19.9448 7.01935 19.9192C6.71765 19.7026 6.42842 19.4689 6.15304 19.2195V19.2251ZM7.89677 20.4634C7.87772 20.4496 7.85592 20.4397 7.83282 20.4349C7.80972 20.43 7.78584 20.43 7.76277 20.4351C7.73969 20.4401 7.71795 20.45 7.69898 20.4641C7.68002 20.4781 7.66427 20.4961 7.65276 20.5167C7.64125 20.5373 7.63427 20.5601 7.63226 20.5837C7.63027 20.6073 7.63329 20.6309 7.64113 20.6531C7.64896 20.6754 7.66147 20.6958 7.67777 20.7129C7.69408 20.73 7.71383 20.7435 7.73573 20.7523C8.05226 20.9245 8.37435 21.0854 8.70199 21.2188C8.73947 21.2261 8.77831 21.2203 8.81206 21.2024C8.8458 21.1845 8.87236 21.1556 8.88733 21.1205C8.90229 21.0854 8.90473 21.0462 8.89425 21.0095C8.88376 20.9728 8.86098 20.9408 8.82972 20.9189C8.51319 20.7856 8.2022 20.6357 7.89677 20.4634ZM9.8071 21.2688C9.7672 21.2624 9.72636 21.2707 9.69217 21.2922C9.65796 21.3137 9.63274 21.3469 9.6212 21.3856C9.60965 21.4244 9.61257 21.466 9.6294 21.5027C9.64623 21.5393 9.67583 21.5687 9.71269 21.5853C10.057 21.6852 10.4013 21.7685 10.7512 21.8351C10.774 21.844 10.7983 21.8476 10.8227 21.8459C10.8471 21.8441 10.8707 21.8371 10.892 21.8252C10.9133 21.8134 10.9318 21.7969 10.9461 21.7771C10.9603 21.7574 10.97 21.7347 10.9746 21.7108C10.9792 21.6868 10.9785 21.662 10.9724 21.6384C10.9663 21.6147 10.9551 21.5927 10.9397 21.5739C10.9242 21.555 10.9047 21.5398 10.8827 21.5293C10.8607 21.5189 10.8367 21.5133 10.8122 21.513C10.4791 21.452 10.1404 21.3687 9.8071 21.2688ZM11.8396 21.6464C11.8155 21.6384 11.7899 21.6361 11.7647 21.6395C11.7396 21.643 11.7156 21.6522 11.6945 21.6663C11.6734 21.6804 11.6559 21.6992 11.6432 21.7212C11.6305 21.7431 11.623 21.7678 11.6212 21.7932C11.6195 21.8184 11.6235 21.8438 11.6331 21.8673C11.6427 21.8909 11.6574 21.9119 11.6764 21.9288C11.6953 21.9457 11.7178 21.9581 11.7423 21.965C11.7667 21.9718 11.7925 21.973 11.8173 21.9685C11.9951 21.9851 12.1728 21.9906 12.3505 21.9962C12.3744 22.0014 12.399 22.0013 12.4228 21.9958C12.4466 21.9904 12.469 21.9799 12.4882 21.9649C12.5075 21.9498 12.5231 21.9308 12.5343 21.909C12.5453 21.8874 12.5515 21.8634 12.5523 21.839C12.5532 21.8147 12.5485 21.7904 12.5391 21.7679C12.5295 21.7455 12.515 21.7254 12.4968 21.7092C12.4787 21.6929 12.4571 21.6808 12.4337 21.6738C12.4104 21.6668 12.3858 21.665 12.3616 21.6685C12.1895 21.6685 12.0117 21.6575 11.8396 21.6464Z" fill="white"/>
</svg>

<svg xmlns="http://www.w3.org/2000/svg" width="24" height="24" fill="none" viewBox="0 0 24 24">
    <path fill="#fff" d="M10.102 6.447H7.56l3.904 5.686-3.904 5.976h2.426l2.722-4.165 2.86 4.165h2.543zm7.451 0h-2.321l-1.566 2.577 1.183 1.865z"/>
    <path fill="#fff" fill-rule="evenodd" d="M9.802 2.86c.888-.267 1.832-.35 2.804-.35 2.488 0 4.76.883 6.48 2.438a.222.222 0 0 0 .295-.334 10.07 10.07 0 0 0-9.707-2.176.222.222 0 0 0 .128.422m10.15 2.893a.25.25 0 0 0 .245-.25.25.25 0 0 0-.244-.25.25.25 0 0 0-.25.25c0 .139.111.25.25.25m0 .25a.5.5 0 0 0 0-1c-.277 0-.499.222-.499.5s.222.5.5.5M4.043 7.24a.21.21 0 0 1 .09.294 9.55 9.55 0 0 0-1.078 4.543c0 2.177.667 4.187 1.888 5.803a.222.222 0 0 1-.35.261 10.02 10.02 0 0 1-2.032-6.064c0-1.721.428-3.332 1.188-4.748a.22.22 0 0 1 .295-.089m17.294 9.285c.1.056.133.195.078.3a9.86 9.86 0 0 1-5.665 4.665.2.2 0 0 1-.162-.02.2.2 0 0 1-.099-.13.22.22 0 0 1 .139-.272 9.44 9.44 0 0 0 5.414-4.46.21.21 0 0 1 .295-.083M7.99 3.548a.167.167 0 1 0-.155-.289q-.402.217-.778.467a.167.167 0 1 0 .178.278c.244-.167.5-.317.755-.456m-1.466.966a.166.166 0 1 0-.205-.255q-.352.282-.678.605a.167.167 0 0 0 .228.234c.21-.206.433-.4.655-.584m-1.26 1.222a.166.166 0 0 0-.25-.21q-.385.447-.717.938a.166.166 0 1 0 .278.183q.317-.475.689-.91m.888 13.49a.167.167 0 0 0-.261.133c0 .04.013.08.039.11q.429.382.9.711a.157.157 0 0 0 .227-.038.167.167 0 0 0-.039-.223 10 10 0 0 1-.866-.7zm1.744 1.237a.167.167 0 0 0-.244.054.166.166 0 0 0 .083.235c.316.172.638.333.966.467a.167.167 0 0 0 .128-.3 9 9 0 0 1-.933-.456m1.91.806a.166.166 0 0 0-.094.316q.515.15 1.038.25a.17.17 0 0 0 .141-.01.166.166 0 0 0-.08-.312 10 10 0 0 1-1.005-.244m2.033.377a.167.167 0 1 0-.023.322c.178.017.356.023.534.028a.17.17 0 0 0 .137-.031.17.17 0 0 0 .051-.197.17.17 0 0 0-.177-.1c-.172 0-.35-.01-.522-.022" clip-rule="evenodd"/>
</svg>
